X:1
T:Title
%%score 1 2
L:1/8
M:6/4
K:C
V:1 treble nm="Voice Oohs, Staff"
V:2 treble nm="Nylon Gtr., Staff-1"
V:1
 D2 F4 G2 A4 | D2 F2 E2- E3/2 z/ D4- | D2 A2 A2 B2 c4 | F2 A2 G2- G3/2 z/ F4- | F2 c2 c2 c2 c4 | %5
w: By~K�ln~[Kolonjo]~1638,~Augsburg~1666 * * *|||||
 A2 d4 d2 c4- | c2 A2 A2 G2 A4 | F2 G2 E2- E3/2 z/ D4 |] %8
w: |||
V:2
 z2 [A,DA]4- [A,DA]6- | [A,DA]2 [CEGc]4- [CEGc]3/2 z/ [A,DAd]4- | %2
 [A,DAd]2 [A,DAf]4- [A,DAf]3/2 z/ [A,Ace]4 | [_B,_Bdf]2 [B,Bdf]2 [CEGc]2- [CEGc]3/2 z/ [FAcf]4- | %4
 [FAcf]2 [FAcf]4- [FAcf]3/2 z/ [DAc^f]4- | [DAcf]2 [G,GBg]4- [G,GBg]3/2 z/ [G,CEG]4- | %6
 [G,CEG]2 [FAcf]4- [FAcf]3/2 z/ [DAc^f]4 | [G,GB^f]4 [A,A^ce]2- [A,Ace]3/2 z/ [DAdf]4 |] %8

